src/16/actions/edit-clear-locationbar-ltr.svg

<?xml version="1.0" encoding="UTF-8" standalone="no"?>
<svg
   xmlns:dc="http://purl.org/dc/elements/1.1/"
   xmlns:cc="http://creativecommons.org/ns#"
   xmlns:rdf="http://www.w3.org/1999/02/22-rdf-syntax-ns#"
   xmlns:svg="http://www.w3.org/2000/svg"
   xmlns="http://www.w3.org/2000/svg"
   xmlns:sodipodi="http://sodipodi.sourceforge.net/DTD/sodipodi-0.dtd"
   xmlns:inkscape="http://www.inkscape.org/namespaces/inkscape"
   viewBox="0 0 16 16"
   id="svg2"
   version="1.1"
   inkscape:version="0.91 r13725"
   sodipodi:docname="edit-clear-locationbar-ltr.svg">
  <metadata
     id="metadata10">
    <rdf:RDF>
      <cc:Work
         rdf:about="">
        <dc:format>image/svg+xml</dc:format>
        <dc:type
           rdf:resource="http://purl.org/dc/dcmitype/StillImage" />
      </cc:Work>
    </rdf:RDF>
  </metadata>
  <sodipodi:namedview
     pagecolor="#ffffff"
     bordercolor="#666666"
     borderopacity="1"
     objecttolerance="10"
     gridtolerance="10"
     guidetolerance="10"
     inkscape:pageopacity="0"
     inkscape:pageshadow="2"
     inkscape:window-width="640"
     inkscape:window-height="480"
     id="namedview8"
     showgrid="false"
     inkscape:zoom="14.75"
     inkscape:cx="8"
     inkscape:cy="8"
     inkscape:window-x="0"
     inkscape:window-y="0"
     inkscape:window-maximized="0"
     inkscape:current-layer="svg2" />
  <defs
     id="defs3051">
    <style
       type="text/css"
       id="current-color-scheme">
      .ColorScheme-Text {
        color:#5d656b;
      }
      </style>
  </defs>
  <path
     style="color:#5d656b;fill:currentColor;fill-opacity:1;stroke:none"
     d="M 10,2 15.292969,7.2929688 16,8 15.292969,8.7070312 10,14 1,14 0,14 0,2 1,2 10,2 Z M 7.9980469,5 5.988281,7.0097656 3.978516,5 2.988281,5.9902344 4.998047,8 2.988281,10.009766 3.978516,11 5.988281,8.9902344 7.9980469,11 8.9882812,10.009766 6.9785156,8 8.9882812,5.9902344 7.9980469,5 Z"
     class="ColorScheme-Text"
     id="path6"
     inkscape:connector-curvature="0" />
</svg>

<svg xmlns="http://www.w3.org/2000/svg" viewBox="0 0 16 16"><path d="M10 2l5.293 5.293L16 8l-.707.707L10 14H0V2h10zM7.998 5l-2.01 2.01L3.978 5l-.99.99L4.998 8l-2.01 2.01.99.99 2.01-2.01L7.998 11l.99-.99L6.978 8l2.01-2.01-.99-.99z" color="#5d656b" fill="currentColor"/></svg>
